X:1
T:Oh Onochie O
M:3/4
L:1/4
K:G
 G3/4 A/4| B2 c| A2 G3/4- A/4| B2 D| E2 D3/4- E/4| G G g| e2 d|e/2-d/2c/2-B/2 d|\
 e2 G3/4- A/4| B2 c| A2 G3/4- A/4| B E- D| E2 G3/4- A/4| B Bd/2-B/2|\
 A AB/2-A/2| G3/2 e/2- F| G2f/2-g/2| a3/2 g/2- f| e- f g|f/2-e/2 ^d e|\
 B2G/4-A/4-B/4-c/4| d dg/2-f/2| e3/2 d/2- g| de/2-d/2c/2-B/2| A2d/2-c/2|\
 B- c d| e F G| c3/4- B/4- A G| d2 g3/4- f/4| e3/2 d/2B/4-d/4 e/2|\
 d3/2 B/2A/4-B/4 d/2| B3/2 A/2-B/4-A/4-G/4-A/4| G2||
